X:14862
T:Saratoga Reel
M:2/4
L:1/16
K:A
cd|e^def e=dcB|Aaga e2c2|d2fe dcBA|GABG E2cd|!
e^def e=dcB|Aaga e2c2|dfed cBAG|A2c2 A2:|!
|:GA|BEE2 BEdE|cEE2 cEeE|BEE2 BEdE|cAEC A,2c2|!
BEE2 BEdE|cEE2 cEec|dfed cBAG|A2c2 A2:|!
